X:1
T:The Lights of Home
T:Charles H. Marsh
T:The Lights of Home
T:Public Domain
T:Public Domain
T:Public Domain
T:Public Domain
C:Charles H. Marsh
Z:Public Domain
%%score ( 1 2 ) ( 3 4 )
L:1/8
M:3/2
K:D
V:1 treble 
V:2 treble 
V:3 bass 
V:4 bass 
V:1
 [A,F]2 [B,F]2 | [A,F]6 [B,F]2 [DF]2 [B,F]2 | [DG]4 [CG]4 [CG]2 [EG]2 | %3
w: 1.~O the|friends that now are|wait- ing, In the|
w: 2.~They have|laid a- side their|ar- mor For the|
w: 3.~On those|dear fa- mil- iar|fac- es There will|
 [B,G]6 [^A,G]2 [B,G]2 [DG]2 | [A,F]8 [A,F]2 [B,F]2 | [A,F]6 [FA]2 [EG]2 [DF]2 | %6
w: cloud- less realms of|day, Who are|call- ing me to|
w: robe of spot- less|white; And with|Je- sus they are|
w: be no trace of|care; Ev- ery|sigh was hushed for-|
 [CE]4 [CA]4 [CE]2 [CE]2 | [B,D]2 [CE]2 [DF]4 (E2 D2) | [B,A]8 [A,F]2 [B,F]2 | %9
w: fol- low Where their|steps have led the *|They have laid|
w: walk- ing Where the|riv- er spar- kles *|We have la-|
w: ev- er At the|pal- ace gate so *|I shall see|
 [A,F]6 [B,F]2 [DF]2 [B,F]2 | [DG]4 [CG]4 [CG]2 [EG]2 | [B,G]6 [^A,G]2 [B,G]2 [DG]2 | %12
w: a- side their ar-|mor, And their earth-|ly course is run;|
w: bored here to- ge-|ther, We have la-|bored side by side,|
w: them, I shall know|them, I shall hear|their song of love,|
 [A,F]8 [DF]2 [EG]2 | [FA]6 [GB]2 [A=c]2 [Fc]2 | [E=c]4 [DB]4 [DB]2 [E_B]2 | %15
w: They have kept|the faith with pa-|tience And their crown|
w: Just a lit-|tle while be- fore|me They have crossed|
w: And we’ll all|sing hal- le- lu-|jah In our Fa-|
 [FA]2 [DF]2 [FA]4 [EG]4 | [DF]8 ||"^Refrain" A2 A2 | [Gc]6 [GB]2 [GB]3 [Ac] | %19
w: of life is won.||||
w: the rol- ling tide.|They|are call-|ly call- ing, Sweet-|
w: ther’s house a- bove.||||
 [GB]4 [FA]4 [FA]2 A2 | [Gc]6 [GB]2 [GB]3 [G_B] | [FA]8 [Ad]2 [^Ad]2 | [Bd]6 [Bd]2 [Ac]3 [GB] | %23
w: ||||
w: ly call- ing me|come, And I’m look-|ing through the|sha- dows For the|
w: ||||
 [^E^G]4 [FA]4 [DA]2 [DA]2 | [DA]2 [DG]2 [DF]4 [CE]4 | D8 |] %26
w: |||
w: bless- èd lights of|home. * * *||
w: |||
V:2
 x4 | x12 | x12 | x12 | x12 | x12 | x12 | x8 ^G4 | x12 | x12 | x12 | x12 | x12 | x12 | x12 | x12 | %16
w: |||||||way;|||||||||
w: |||||||bright.|||||||||
w: |||||||fair.|||||||||
 x8 || A2 A2 | x12 | x10 A2 | x12 | x12 | x12 | x12 | x12 | D8 |] %26
w: ||||||||||
w: |ing, gent-||to|||||||
w: ||||||||||
V:3
 z4 | D,,2- [D,,-A,,]2 [D,,-D,F,]2 D,,2- [D,,A,,D,F,]4 | E,,2- [E,,-A,,]2 [E,,-E,A,]2 E,,6 | %3
 F,,,2- [F,,,-A,,]2 F,,,4- [F,,,A,,E,G,]4 | (D,,2- [D,,-A,,]2 [D,,-B,,D,]2 D,,6) | %5
 (D,,2- [D,,-A,,]2 [D,,-B,,D,]2) D,,2- [D,,D,F,A,]4 | (E,,2- [E,,-C,]2) [E,,-E,A,]4 E,,4 | %7
 E,,2- [E,,-B,,]2 [E,,-E,^G,]4 [E,,E,B,]4 | (A,,2- [A,,-C,E,]2 [A,,-E,G,A,]2 A,,2) z4 | %9
 (D,,2- [D,,-A,,]2 [D,,-D,F,]2) D,,2- [D,,A,,D,F,]4 | D,,2- [D,,A,,]2 [D,,E,A,]4 D,,4 | %11
 (A,,,2- [A,,,-A,,]2 [A,,,-C,G,A,]2) A,,,2- [A,,,A,,E,G,]4 | %12
 (D,,2- [D,,-A,,]2 [D,,D,F,]2 D,,2) z4 | (D,,2- [D,,-A,,]2 [D,,-D,F,]2) D,,2- [D,,D,F,A,]4 | %14
 G,,2- [G,,-D,]2 [G,,-G,B,]4 G,,4 | A,,2- [A,,-A,]2 ([A,,-D]2 [A,,-C]2) (B,2 C2) | [D,A,]8 || %17
 A,2 A,2 | [A,E]6 [A,C]2 [A,C]3 [A,E] | [D,D]4 [D,D]4 [D,D]2 [F,D]2 | [A,E]6 [A,C]2 [A,C]3 [A,C] | %21
 [D,D]8 [F,D]2 [F,D]2 | [G,D]6 [G,D]2 [G,D]3 [G,D] | [D,D]4 [D,D]4 [F,=C]2 [F,C]2 | %24
 [G,B,]2 [G,_B,]2 A,4 [A,,G,]4 | [D,F,]8 |] %26
V:4
 x4 | x12 | x12 | x12 | x12 | x12 | x12 | x12 | x12 | x12 | x12 | x12 | x12 | x12 | x12 | x8 A,,4 | %16
 x8 || A,2 A,2 | x12 | x12 | x12 | x12 | x12 | x12 | x4 A,4 x4 | x8 |] %26

